X: 39625
T: Tempest, The
R: barndance
M: 4/4
K: Dmajor
A2|d2 A2 AB A2|f2 d2 de d2|e2 A2 B2 c2|dcde f2 a2|
f2 A2 AB A2|f2 d2 de d2|e2 A2 B2 c2|d6||
fg|a2 f2 f2 d2|edcB A2 fg|a2 f2 f2 d2|edcB A2 Bc|
d2 A2 AB A2|f2 d2 de d2|e2 A2 B2 c2|d6||
Bc|d2 f2 a2 f2|b2 g2 a3f|g2 f2 e2 d2|cdec A2 Bc|
d2 f2 a2 f2|b2 g2 a3f|g2 e2 c2 A2|d6||
ef|g2 e2 c2 A2|d2 f2 a3f|g2 e2 c2 A2|defg a3f|
d2 f2 a2 f2|b2 g2 a3f|g2 e2 c2 A2|d6||

